src/assets/icons/paint_roller.svg

<svg width="64" height="64" viewBox="0 0 64 64" fill="none" xmlns="http://www.w3.org/2000/svg">
<g clip-path="url(#clip0)">
<path d="M50 35.3333V34L61.6672 33.7083C62.5806 33.6855 63.3333 34.4197 63.3333 35.3333V35.3333C63.3333 36.247 62.5806 36.9812 61.6672 36.9583L50 36.6667V35.3333Z" fill="#B3CCEE"/>
<path d="M40 20V20C40 18.8954 40.8954 18 42 18H45.4088C46.4834 18 47.366 18.8493 47.4073 19.9231L47.926 33.4102C47.9673 34.4841 48.8499 35.3333 49.9246 35.3333H50M50 35.3333V34M50 35.3333V36.6667M50 32.6667V34M50 38V36.6667M50 34L61.6672 33.7083C62.5806 33.6855 63.3333 34.4197 63.3333 35.3333V35.3333C63.3333 36.247 62.5806 36.9812 61.6672 36.9583L50 36.6667" stroke="black" stroke-width="2" stroke-linecap="round" stroke-linejoin="round"/>
<path d="M9.72792 20.6667H34.6666C35.7712 20.6667 36.6666 21.5621 36.6666 22.6667V45.3333C36.6666 46.4379 35.7712 47.3333 34.6666 47.3333H4.39458C3.43215 47.3333 2.54439 46.8147 2.07171 45.9764C1.61332 45.1634 1.61332 44.1699 2.0717 43.3569C2.54439 42.5186 3.43215 42 4.39458 42H13.6833C14.6457 42 15.5335 41.4814 16.0061 40.643C16.4645 39.8301 16.4645 38.8366 16.0061 38.0236C15.5335 37.1853 14.6457 36.6667 13.6833 36.6667H10.4088C9.44634 36.6667 8.55858 36.1481 8.08589 35.3097C7.62751 34.4967 7.62751 33.5033 8.08589 32.6903C8.55858 31.8519 9.44634 31.3333 10.4088 31.3333H17.4421C18.4046 31.3333 19.2923 30.8147 19.765 29.9764C20.2234 29.1634 20.2234 28.1699 19.765 27.3569C19.2923 26.5186 18.4046 26 17.4421 26H9.72792C8.76549 26 7.87773 25.4814 7.40504 24.643C6.94666 23.8301 6.94666 22.8366 7.40504 22.0236C7.87773 21.1853 8.76549 20.6667 9.72792 20.6667Z" fill="#EAD08C" stroke="black" stroke-width="2" stroke-linecap="round" stroke-linejoin="round"/>
<rect x="34.6667" y="20" width="3.33333" height="28" fill="#998A62"/>
<rect x="36.6667" y="20" width="6.66666" height="28" rx="2" fill="#EAD08C" stroke="black" stroke-width="2" stroke-linejoin="round"/>
<path d="M50.6667 34.6667H51.6667V36H50.6667V34.6667Z" fill="#899EBA"/>
<rect x="37.3333" y="20.6667" width="1.33334" height="26.6667" fill="#998A62"/>
<ellipse cx="2.66675" cy="22.6667" rx="2" ry="2" fill="#EAD08C" stroke="black" stroke-width="2"/>
</g>
<defs>
<clipPath id="clip0">
<rect width="64" height="64" fill="white"/>
</clipPath>
</defs>
</svg>

<svg xmlns="http://www.w3.org/2000/svg" fill="none" viewBox="0 0 64 64">
  <g clip-path="url(#clip0)">
    <path fill="#B3CCEE" d="M50 35.333V34l11.667-.292a1.625 1.625 0 110 3.25L50 36.667v-1.334z"/>
    <path stroke="#000" stroke-linecap="round" stroke-linejoin="round" stroke-width="2" d="M40 20v0a2 2 0 012-2h3.409a2 2 0 011.998 1.923l.519 13.487a2 2 0 001.999 1.923H50m0 0V34m0 1.333v1.334m0-4V34m0 4v-1.333M50 34l11.667-.292a1.626 1.626 0 011.666 1.625v0c0 .914-.752 1.648-1.666 1.625L50 36.667"/>
    <path fill="#EAD08C" stroke="#000" stroke-linecap="round" stroke-linejoin="round" stroke-width="2" d="M9.728 20.667h24.939a2 2 0 012 2v22.666a2 2 0 01-2 2H4.395a2.667 2.667 0 110-5.333h9.288a2.666 2.666 0 100-5.333H10.41a2.667 2.667 0 110-5.334h7.033a2.667 2.667 0 100-5.333H9.728a2.667 2.667 0 110-5.333z"/>
    <path fill="#998A62" d="M34.667 20H38v28h-3.333z"/>
    <rect width="6.667" height="28" x="36.667" y="20" fill="#EAD08C" stroke="#000" stroke-linejoin="round" stroke-width="2" rx="2"/>
    <path fill="#899EBA" d="M50.667 34.667h1V36h-1v-1.333z"/>
    <path fill="#998A62" d="M37.333 20.667h1.333v26.667h-1.333z"/>
    <circle cx="2.667" cy="22.667" r="2" fill="#EAD08C" stroke="#000" stroke-width="2"/>
  </g>
  <defs>
    <clipPath id="clip0">
      <path fill="#fff" d="M0 0h64v64H0z"/>
    </clipPath>
  </defs>
</svg>
